X:1
T:Charme-du-jour
T:A Monsieur A. ALVAREZ, de l'Opéra
T:(Sérénade Mauresque)
T:Augusta Holmès
T:Charme-du-jour
T:Nº 1 pour Ténor (ou Soprano). Ton original.
T:(Holmès)
T:OpenScore (CC0)
T:OpenScore (CC0)
T:OpenScore (CC0)
T:OpenScore (CC0)
T:OpenScore (CC0)
C:Holmès, Augusta
Z:(Holmès)
Z:OpenScore (CC0)
%%score ( 1 2 ) { ( 3 6 ) | ( 4 5 ) }
L:1/8
Q:1/4=50
M:3/4
K:E
V:1 treble nm="Chant\nVoice"
V:2 treble 
V:3 treble nm="Piano"
V:6 treble 
V:4 bass 
V:5 bass 
V:1
"^Andante (bien rythmé) ()" z6 | z6 | z6 |!p! B B2 G{/B} A/ G/ A/ c/ | %4
w: |||Ta lèvre est u- ne bois- son|
 B !breath!B2 G!<(!{/B} (A/G/) A/ c/!<)! |!>(! (e!>)! !breath!B2)!p! G (F/E/) F/ G/ | E4 z2 | %7
w: fraî- che Qui brû- * le mon|cœur * Qui brû- * le mon|cœur!|
!p! B/ B/ B2 G"^cédez un peu"({GB)} (A/!breath!B/)[Q:1/4=45] c/ f/ | %8
w: L'a- né- mo- ne rose * et la|
[Q:1/4=43] (e/(3d/4e/4d/4B/) G/[Q:1/4=50]"^a tempo" z!f! B =d/ e/ d/ e/ | %9
w: pê- * * * * che Se mê- lent sur ta|
!>(! (^d/(3c/4d/4c/4!>)! A) z!>(! B/ e/ d c({dc)} | G2-!>)! !breath!G!p! B =c/ =d/ c/ d/ | %11
w: jou- * * * e, Sur ta joue en|fleur! _ Se mê- lent sur ta|
 (B/(3A/4B/4A/4) =G z!<(! A/ B/!<)!!>(! ^d B!>)! | e2- e z z2 | z6 | %14
w: jou- * * * e, Sur ta joue en|fleur! _||
!p! B/ B/ B2 B!<(!({B=d)} (=c/B/) c/ e/!<)! |!p! (=g !breath!=d2)!mf! d f (3(e/f/) e/ | %16
w: Ton re- gard, sous ta _ che- ve-|lu- re, E- clair dans * la|
 B2- !breath!B!p! B{/B} (A/=G/) A/ =c/ | B2- !breath!B!<(! B (=c/!<)!!fermata!e) d/ | %18
w: nuit! _ E- clair * dans la|nuit! _ Ra- ya _ mon|
[Q:1/4=50]"^a tempo"!>(!{/d} B2-!>)! B2 e!<(! e/ d/!<)! | (f2 !breath!F2)!<(! B3/2 B/!<)! | %20
w: cœur * d'u- ne fé-|lu- re D'où ma|
"^à volonté"!f! (=g3/2(3f/4g/4!>(!f/4 e3/2(3^d/4e/4d/4 =c3/2(3B/4c/4B/4 | %21
w: for- * * * * * * * * * * *|
 !breath!^A)!>)!!<(! =G (G!<)! !fermata!e2)!>(! d |[Q:1/4=50]"^a tempo"{/d} B2- B!>)! z z2 | z6 | %24
w: ce vers toi _ s'en-|fuit! _||
!p! B B/ B/ B G!<(!(({GB)} A/G/A/)!<)! c/ | %25
w: Fleur de gre- nade et ro- * * se|
!>(! (e!>)! B2)!f! e[Q:1/4=42]!>(!"^molto rall." (fd/4c/4[Q:1/4=40]d/4c/4!>)! || %26
w: blan- che, O «Char- * * * *|
[M:2/4][Q:1/4=38] d2 (3cdc ||[M:3/4][Q:1/4=50]"^a tempo" G2-) G!p!!>(! (e (F/)!>)!E/) F/ G/ | %28
w: me du _ _|Jour!» * O «Char- * me du|
 E4- E z |!p! B/ B/ B2 G({GB)} (A/B/) c/ f/ | %30
w: Jour!» _|Les ba- lan- ce- ments * de ta|
 (e/d/({ed)}B/ G/) z!>(! (B =d/)!>)!!p! e/!<(! d/ e/!<)! | %31
w: han- * * che Scan- * dent mes po-|
!>(! (^d/(3c/4d/4c/4!>)! A) z!<(! B/ e/!<)!!>(! (d c)({dc)} | %32
w: ê- * * * mes, mes po- ê- mes d'a-|
 G2- !breath!G!>)!!>(! (B!>)!!p! =c/) =d/ c/ d/ | %33
w: mour! _ Scan- * dent mes po-|
 (B/(3A/4B/4A/4) =G z!<(! A/ B/!<)! ^d!>(! c/ B/!>)! |!p! e4 z2 | z6 | %36
w: ê- * * * mes, mes po- ê- mes d'a-|mour!||
!p!"^(avec un accent farouche)" B B2 B/ B/!<(!{/=d} (=c/B/) A/ c/!<)! | %37
w: Et si, dans la soif * é- ter-|
!f! (e !breath!B2)!mf! B{/B} (A/=G/) A/ =c/ | B2- !breath!B!p! =G{/G} (F/E/) F/ G/ | %39
w: nel- le, Par- mi _ les mau-|dits, _ Par- mi _ les mau-|
 F2- !breath!F"^crescendo" B =c3/2 c/4 c/4 | B3/2 B/4 B/4 e2 !breath!d B/ B/ | %41
w: dits, _ Un Djinn m'ap- por-|tait sous son ai- le De la|
!mf! (=f2 B)!p! !tenuto!f !tenuto!f !tenuto!f | !tenuto!^f6- | f2- f2 z!f!!<(! B/ B/[Q:1/4=45] | %44
w: nei- ge du Pa- ra-|dis,|_ _ Je crie-|
 e z/ d/ f2 e d!<)! | %45
w: rais: Va- t'en! Car j'im-|
!ff! (6:4:6(f/"^cédez"[Q:1/4=47]e/d/c/[Q:1/4=45]d/c/) !breath!A!f![Q:1/4=43] B d c/ A/ | %46
w: plo- * * * * * re Al- lah le Clé-|
[Q:1/4=50]"^a tempo" F2- F z!ff! B3/2 B/ | !^!g2 !^!f !^!f !^!e !^!d | %48
w: ment! _ «La re-|voir! La re- voir en-|
!>(! (!^!f/e/({fe)}c/!>)! A/) z2!mf!"^poco rall."[Q:1/4=44]!>(! (e3/2 d/)!>)! | %49
w: co- * * re, Et souf-|
"^a tempo"[Q:1/4=50] B4!p!"^cédez"[Q:1/4=44]!<(! A/ B/ d/!<)!!>(! c/({dc)} | %50
w: frir é- ter- nel- le-|
"^a tempo"[Q:1/4=50] G2-!>)! G z"^rall."[Q:1/4=44]!>(! (e3/2!>)! d/) | %51
w: ment! _ Et souf-|
"^a tempo"[Q:1/4=50] B4!f!"^cédez"[Q:1/4=44]!<(! =c/ =d/!<)!!>(! !tenuto!f/ e/({fe)}!>)! | %52
w: frir é- ter- nel- le-|
"^a tempo"[Q:1/4=50] B2- !breath!B"^crescendo" B/ B/ !^!=f3/2 B/ | %53
w: ment! _ La re- voir en-|
 (!^!^f2 !breath!^A) f/ f/ !^!=g3/2 c/ |!f! (!^!^g2 !breath!^B2) (3:2:2d2 G | %55
w: co- re! La re- voir en-|co- re, Et souf-|
!<(! (3!breath!B e!<)! c!ff!"^allarg."[Q:1/4=44] f7/2 g/{e} |[Q:1/4=50] g4- g z | z6[Q:1/4=44] | %58
w: frir é- ter- nel- le-|ment!» _||
[Q:1/4=50] z6 | !fermata!z6 |] %60
w: ||
V:2
 x6 | x6 | x6 | x6 | x6 | x6 | x6 | x6 | x6 | x6 | x6 | x6 | x6 | x6 | x6 | x6 | x6 | x6 | x6 | %19
 x6 | x6 | x6 | x6 | x6 | x6 | x6 ||[M:2/4] x4 ||[M:3/4] x6 | x6 | x6 | x6 | x6 | x6 | x6 | x6 | %35
 x6 | x6 | x6 | x6 | x6 | x6 | x6 | x6 | x6 | x6 | x6 | x6 | x6 | x6 | x6 | x6 | x6 | x6 | x6 | %54
 x6 | x6 | e4- e x | x6 | x6 | x6 |] %60
V:3
!p! [EGB]4!>(!{/d} (([DAc]2!>)! | [EGB]4))!>(!{/d} (([DAc]2!>)! | [EGB]4))!>(!{/d} (([DAc]2!>)! | %3
!p! [EGB]4))!>(!{/d} (([DAc]2!>)! | [EGB]4))!>(!{/d} (([DAc]2 | [EGB]4))!>)!!>(!{/d} (([DAc]2!>)! | %6
!p! [EGB]4))!>(! (!^![E=G=c]2({=dc)}!>)! |!p! [E^GB]4)!>(!({/d} [DAc]2!>)! | %8
!p! e/(3d/4e/4d/4B/G/)"^a tempo" z2!f! (!arpeggio![G=dg]2 | %9
!>(! (d/)(3c/4d/4c/4!>)!A- A2)!>(! (dc({dc)} | [EG]2-) [EG]!>)! z!p! ((!arpeggio![F=cf]2 | %11
 !arpeggio![=GB=g]2-)) [GBg] z !arpeggio![^DA^d]2 |!f!!>(! e (B2!>)! G!<(!{/B} A/G/A/c/)!<)! | %13
!>(! (e B2!>)! G)!>(!({/d} (([Ac]2!>)! |!p! [EGB]2-))) [EGB] z!>(!{/f} (([F=ce]2 | %15
 [=GB=d]2-)) [GBd]!>)! z!mf! (f(3e/f/e/) | [=GB]2- [GB] z!p! (!arpeggio![EFAe]2 | %17
 !arpeggio![DFAd]2-) [DFAd] z!>(! ((!fermata![_B,E_B]2!>)! | %18
!p!"^a tempo" [=B,D=B]2-)) [B,DB] z!>(! (([_B,E_B]2!>)! |"_dim." [=B,D=B]4-)) [B,DB]2 | %20
!f!"_suivez"!>(! [=CE=c]6-!>)! | [=CE=c]6 | %22
!p!"^a tempo" [B,DB]!<(! !tenuto!B2!<)! !tenuto!B{/B} (A/=G/A/=c/) | %23
 (e B2) (!^!=d!>(! !arpeggio![^DA^d]2)!>)! |!p! (!arpeggio![EGe] [EGB]3)!>(!{/d} (([DAc]2 | %25
 [EGB]2-)) [EGB]!>)! z!f!"_molto rall." !arpeggio![Adfa]([da]/4[ca]/4[da]/4[ca]/4 || %26
[M:2/4]!>(! [da]2 [ca]2!>)! ||[M:3/4]!p!"^a tempo" [Geg]2-) [Geg] z [DAB]2 | %28
!<(! [EGB]4!<)!!>(! !^![E=G=c]2(({=dc)}!>)! |!p!!<(! [E^GB]4)!<)!!>(!({/d} [DAc]2!>)! | %30
!p! e/d/({ed)}B/G/) z2!<(! x2!<)! |!>(! (d/(3c/4d/4c/4 A2-)!>)! A!p! (dc({dc)} | %32
 [EG]2-) [EG] z!p! (!arpeggio![F=cf]2 | !arpeggio![=GB=g]2-) [GBg] z (!arpeggio![^DA^d]2 | %34
"_crescendo" (e) B2 G{/B} A/G/A/c/ |!mf! e B2) (!^!=d!>(! !arpeggio![^DA^d]2!>)! | %36
!p! [E=Ge]/) z/!<(! [EGB]3{/=d} ([EA=c]2!<)! |!f!!>(! [E=GB]2-)!>)! [EGB] z [=C=DF=c]2 | %38
 [B,=D=GB]2- [B,DGB] z (([^A,E^A]2 | [=A,D=A]2-)) [A,DA] z"_crescendo" !^![=CEF=c]2 | %40
 !^![B,DFB]2 !^![EFAe]2 !^![DFAd] z |!mf! [=FB=f] z!>(! ([=fb=f']4!>)! | %42
!pp!!8va(! !arpeggio!!wedge![^fb^f']/) z/ ([fbf']2 [dd']){/f'} (e'/d'/e'/g'/) | %43
 (b' f'2)!8va)!"_allarg.""_cresc." !^![d=ad']!^![cdac']!^![Bdab] | %44
!f! [ege']>[dgd'] [fgf']2 [ege'][dgd'] | %45
!ff! (6:4:6([faf']/"_suivez"[eae']/[dad']/[cac']/[dad']/[cac']/) [Ada]/ !breath!z/ ([Bdab] !^![dad'][cdac']/[Acda]/ | %46
"^a tempo" [FAdf]4-) [FAdf] z |!ff! !^![G^Bg]2 !^![GBf]2- [GBf] z | %48
!mf! (f/e/({fe)}c/A/) x z"_poco rall."!>(! (!^![EA]2!>)! | %49
"^a tempo" [EG]2-) [EG] z"_cédez"!p!!<(! A/B/!<)!!>(!d/c/({dc)}!>)! | %50
"^a tempo" [EG]2- [EG] z"_rall."!>(! (!^![E_B]2 | %51
"^a tempo" [=D=B]2-)!>)! [DB] z!f!!<(!"_rall." =c/=d/!<)!!>(!f/e/({fe)}!>)! | %52
"^a tempo" [=GB]2- [GB] z [=F=GB=f]2 | [^F^Ae^f]2- [FAef]2 [=G=Ac=g]2 | %54
!f! [^G^Bf^g]2 !>!f!>!d!>!B!>!G | [B,EGB] z!ff!"_allarg." (!^![A,-EA-]2 [A,DA]2) | %56
"^a tempo"!f! (!^!e B2 G){/B} (A/G/A/c/ | e B2)!ff! (!fermata!=d"_molto rall."!>(! [^DA^d]2)!>)! | %58
"^a tempo"!p! !arpeggio![EGe] z !arpeggio![EGe] z !arpeggio![EGe] z | %59
 !arpeggio![EGe] z z2 !fermata!z2 |] %60
V:4
!ped! z B,2!ped-up! B,2!ped! B,!ped-up! |!ped! z B,2!ped-up! B,2!ped! B,!ped-up! | %2
!ped! z (B,2!ped-up! G,)!p!!ped! (F,/E,/F,/G,/!ped-up! |!ped! E,) B,2!ped-up! B,2!ped! B,!ped-up! | %4
!ped! z B,2!ped-up! B,2!ped! B,!ped-up! |!ped! z B,2!ped-up! B,2!ped! B,!ped-up! | %6
!ped! z B,2!ped-up! B,!ped! !arpeggio!!^![E,,=B,,_B,]-[E,,B,,B,]/ z/!ped-up! | %7
!ped! z =B,2!ped-up! B,2!ped! B,!ped-up! |!ped! z B,2!ped-up! B,2!ped! B,!ped-up! | %9
!ped! z [F,B,D]2!ped-up! [F,B,D]!ped! z B,!ped-up! |!ped! z B,2!ped-up! B,!ped! z A,!ped-up! | %11
!ped! z B,2!ped-up! B,!ped! z B,!ped-up! |!ped! z (B,2!ped-up! G,)!ped! F,2!ped-up! | %13
!ped! z (B,2!ped-up! G, F,/E,/F,/G,/) |!ped! E, B,2!ped-up! B,!ped! z A,!ped-up! | %15
!ped! z B,2!ped-up! B,!ped! z A,!ped-up! |!ped! z B,2!ped-up! B,!ped! z2!ped-up! | %17
!ped! z B,2!ped-up! B,!ped! z2!ped-up! |!ped! F, F,2 F,!ped-up!!ped! =G,2!ped-up! | %19
!ped! F, F,2 F,2 F,!ped-up! |!ped! [B,,E,]6- | [B,,E,]6!ped-up! | %22
!ped! z !tenuto!B,2!ped-up! !tenuto!B, (A,/=G,/A,/=C/) | B, B,2 (=G, F,/E,/F,/^G,/ | %24
!ped! E,) B,2!ped-up! B,!ped! z B,!ped-up! |!ped! z B,2!ped-up! B,!ped! z [B,DFA]- || %26
[M:2/4] [B,DFA]2- [B,DFA]!ped-up! z ||[M:3/4]!ped! z B,2!ped-up! B,2!ped! B,!ped-up! | %28
!ped! z B,2!ped-up! B,!ped! !arpeggio!!^![E,,=B,,_B,]-[E,,B,,B,]/!ped-up! z/ | %29
!ped! z B,2!ped-up! B,2!ped! B,!ped-up! |!ped! z B,2!ped-up! B,2!ped! B,!ped-up! | %31
!ped! z [F,B,D]2!ped-up! [F,B,D]!ped! z F,!ped-up! |!ped! z B,2!ped-up! B,!ped! z A,!ped-up! | %33
!ped! z B,2!ped-up! B,!ped! z F,!ped-up! |!ped! z (B,2!ped-up! G,!ped! A,/G,/A,/C/)!ped-up! | %35
!ped! z B,2!ped-up! (!^!=D!ped! F,/E,/F,/G,/!ped-up! |!ped! E,) B,2!ped-up! B,!ped! z A,!ped-up! | %37
!ped! z B,2!ped-up! B,!ped! z A,!ped-up! |!ped! z =G,2!ped-up!!p! (B,, C,F,,) | %39
!ped! z F,2!ped-up! F,!ped! z A,!ped-up! |!ped! z B,!ped-up!!ped! z =C!ped-up!!ped! z B,!ped-up! | %41
!ped! z2 !arpeggio![=G,=D=F]3- [G,DF]/ z/!ped-up! |!ped! x!ped-up!"_una corda" (F2 D) (E/D/E/G/) | %43
 F F2 !^!D!ped!!^!C!^!B,!ped-up! |!ped! z !///-![B,E]/G/ !////-![B,E]2 G2!ped-up! | %45
!ped! z !//-![B,D]/4A/4 !//-![B,D]/4A/4 [B,D]/ z/ B,!ped-up!!ped! !^!DC/A,/!ped-up! | %46
!ped! F,4- F, z!ped-up! |!ped! z2 !^![G,DF]2- [G,DF]!ped-up! z | %48
!ped! z !arpeggio![E,A,CE]-[E,A,CE]!ped-up! z (!^!F,2 |!ped! G,) B,2!ped-up! B,!ped! z B,!ped-up! | %50
!ped! z B,2!ped-up! B,!ped! x2!ped-up! |!ped! z B,2!ped-up! B,!ped! z A,!ped-up! | %52
!ped! z B,2!ped-up!"^crescendo" B,!ped! z =G,!ped-up! |!ped! z F,2!ped-up! F,!ped! z =A,!ped-up! | %54
!ped! z G, !>!F!ped-up!!>!D!>!^B,!>!G, | [B,,,B,,] z!ped! [B,,,B,,]2- [B,,,B,,]2!ped-up! | %56
!ped! z (B,2!ped-up! G,)!ped! z/ (G,/A,/C/)!ped-up! | %57
!ped! z B,2!ped-up! (!fermata!=D!ped! F,/)(E,/F,/>G,/)!ped-up! | %58
!ped! G,6-!ped-up!!ped!!ped-up!!ped!!ped-up! |!ped! G,2!ped-up! z2 !fermata!z2 |] %60
V:5
 [E,,B,,]2- [E,,B,,] z [E,,B,,]2 | [E,,B,,]2- [E,,B,,] z [E,,B,,]2 | [E,,B,,]2- [E,,B,,] z B,,2 | %3
 [E,,B,,]2- [E,,B,,] z [E,,B,,]2 | [E,,B,,]2- [E,,B,,] z [E,,B,,]2 | %5
 [E,,B,,]2- [E,,B,,] z [E,,B,,]2 | [E,,B,,]2- [E,,B,,] z x2 | %7
 [E,,B,,]2- [E,,B,,] z"^suivez" [E,,B,,]2 | [E,,B,,]2- [E,,B,,] z [E,,B,,]2 | %9
 [B,,,B,,]2- [B,,,B,,] z [B,,,B,,]2 | [E,,B,,]2- [E,,B,,] z [=D,,=D,]2 | %11
 [=G,,=D,]2- [G,,D,] z [B,,F,]2 | !arpeggio![E,,B,,E,]2- [E,,B,,E,] z !arpeggio!B,,2 | %13
 !arpeggio![E,,B,,E,]2- [E,,B,,E,] z !arpeggio!B,,2 | !arpeggio![E,,B,,]2- [E,,B,,] z [=D,,=D,]2 | %15
 [=G,,=D,]2- [G,,D,] z [=D,,D,]2 | [=G,,=D,]2- [G,,D,] z{/=C,,} (=C,>A,,) | %17
 [B,,,B,,]2- [B,,,B,,] z !arpeggio!!fermata![=B,,=G,]2 | !arpeggio!B,,4 !arpeggio!=B,,2 | %19
 !arpeggio!B,,4- B,,2 | x6 | x6 | [B,,F,]2- [B,,F,] z !arpeggio!B,,2 | %23
 !arpeggio!B,,2- B,, z !arpeggio!B,,2 | [E,,B,,]2- [E,,B,,] z [E,,B,,]2 | %25
 [E,,B,,]2- [E,,B,,] z [B,,,B,,]2- ||[M:2/4] [B,,,B,,]2- [B,,,B,,] z || %27
[M:3/4] [E,,B,,]2- [E,,B,,] z [B,,,B,,]2 | [E,,B,,]2- [E,,B,,] z x2 | %29
 [E,,B,,]2- [E,,B,,] z [E,,B,,]2 | [E,,B,,]2- [E,,B,,] z [E,,B,,]2 | %31
 [B,,,B,,]2- [B,,,B,,] z [B,,,B,,]2 | [E,,B,,]2- [E,,B,,] z [=D,,=D,]2 | %33
 [=G,,=D,]2- [G,,D,] z [B,,,B,,]2 | [E,,B,,]2- [E,,B,,] z !arpeggio!B,,2 | %35
 [E,,B,,]2- [E,,B,,] z !arpeggio!B,,2 | [E,,B,,]2- [E,,B,,] z [A,,,A,,]2 | %37
 [E,,,E,,]2- [E,,,E,,] z [=D,,=D,]2 | [=G,,=D,]2- [G,,D,] z x2 | %39
 [B,,,B,,]2- [B,,,B,,] z [A,,,A,,]2 | !^![B,,,B,,]2 !^![=C,,=C,]2 !^![B,,,B,,]2 | %41
 [=G,,,=G,,]4- [G,,,G,,] z | [F,,,F,,]/ z/ !arpeggio![F,B,D]3 !arpeggio![F,C]2 | %43
 !arpeggio![F,B,D]2- [F,B,D] x{/[B,,,B,,]} [B,,,B,,]2 | [E,,,E,,]4- [E,,,E,,] z | %45
 [F,,F,]2- [F,,F,]2{/[B,,,B,,]} [B,,,B,,]-[B,,,B,,] | z !^![B,,B,]2 !^![B,,B,]2 !^![B,,B,] | %47
 !^![G,,,G,,]4- [G,,,G,,] z | [A,,,A,,]2- [A,,,A,,] z z2 | %49
 !arpeggio![E,,B,,]2- [E,,B,,] z [B,,,B,,]2 | [E,,B,,]2- [E,,B,,] z (!^!=C,2 | %51
 [=G,,=D,]2-) [G,,D,] z [=D,,D,]2 | [=G,,=D,]2- [G,,D,] z [=G,,,G,,]2 | %53
 [F,,,F,,]2- [F,,,F,,] z [=A,,,=A,,]2 | [G,,,G,,]2- [G,,,G,,] z z2 | x6 | %56
 [E,,,E,,]2- [E,,,E,,] z [B,,,B,,]2 | [E,,,E,,]2- [E,,,E,,] z !arpeggio!B,,2 | %58
 !arpeggio![E,,B,,G,] z !arpeggio![E,,B,,G,] z !arpeggio![E,,B,,G,] z | %59
 !arpeggio![E,,B,,G,] z x4 |] %60
V:6
 x6 | x6 | x6 | x6 | x6 | x6 | x6 | x6 | !arpeggio![EG]4 x2 | %9
 !arpeggio![A^da]2 z2 !arpeggio![DA]2 | x6 | x6 | !arpeggio![EG]2- [EG] z D2 | %13
 !arpeggio![EG]2- [EG] z D2 | x6 | x4 !arpeggio![F=c]2 | x6 | x6 | x6 | x6 | x6 | x6 | x4 D2 | %23
 !arpeggio![E=G]2- [EG] z x2 | x6 | x6 ||[M:2/4] x4 ||[M:3/4] x6 | x6 | x6 | %30
 !arpeggio![EG]4 (!arpeggio![G=dg]2 | !arpeggio![A^da]2) x2 !arpeggio![DA]2 | x6 | x6 | %34
 !arpeggio![EG]4 D2 | !arpeggio![EG]4 x2 | x6 | x6 | x6 | x6 | x6 | x6 |!8va(! x4 ^a2 | %43
 [bd']2- [bd']!8va)! x x2 | x6 | x6 | z !^!B2 !^!B2 !^!B | x6 | !arpeggio![Ac]2- [Ac] x x2 | %49
 x4 [DA]2 | x6 | x4 [F=c]2 | x6 | x6 | x6 | x6 |{/[G,EG]} [EG]4 D2 | [EG]2- [EG] z x2 | x6 | x6 |] %60

